souls/img/discover.svg

<svg width="36" height="25" viewBox="0 0 36 25" fill="none" xmlns="http://www.w3.org/2000/svg">
<g clip-path="url(#clip0_0_30)">
<path d="M4.89 10.5632C4.89 11.1162 4.703 11.5732 4.328 11.9302C4.026 12.2132 3.562 12.3542 2.938 12.3542H2.672V8.77316H2.937C3.573 8.77316 4.037 8.91917 4.328 9.21317C4.703 9.54917 4.891 9.99916 4.891 10.5632H4.89ZM32.64 9.50517C32.64 10.0692 32.307 10.3522 31.64 10.3522H31.344V8.70817H31.656C32.313 8.70817 32.641 8.97416 32.641 9.50517H32.64ZM5.938 10.5632C5.938 9.76016 5.678 9.10616 5.158 8.60217C4.636 8.09717 3.965 7.84516 3.142 7.84516H1.656V13.2652H3.141C3.911 13.2652 4.531 13.0592 5 12.6462C5.30093 12.3902 5.54119 12.0705 5.70341 11.7102C5.86564 11.35 5.94577 10.9582 5.938 10.5632ZM6.408 13.2652H7.423V7.84516H6.406V13.2652H6.408ZM11.408 11.6212C11.408 11.1872 11.301 10.8512 11.087 10.6122C10.873 10.3732 10.48 10.1452 9.907 9.92817C9.605 9.82017 9.399 9.71716 9.29 9.61917C9.23685 9.57272 9.19459 9.51512 9.16624 9.45048C9.1379 9.38583 9.12416 9.31573 9.126 9.24516C9.126 9.07117 9.196 8.92717 9.336 8.81316C9.49087 8.69565 9.68174 8.63556 9.876 8.64316C10.178 8.64316 10.454 8.78916 10.704 9.08216L11.235 8.36617C10.8244 7.97147 10.2745 7.75507 9.705 7.76416C9.245 7.76416 8.86 7.91317 8.548 8.21117C8.39674 8.35091 8.27675 8.52108 8.19592 8.71049C8.11509 8.8999 8.07525 9.10426 8.079 9.31017C8.079 9.69017 8.173 9.99017 8.36 10.2132C8.548 10.4362 8.881 10.6332 9.36 10.8072C9.746 10.9482 9.98 11.0512 10.064 11.1172C10.261 11.2472 10.36 11.4312 10.36 11.6702C10.3626 11.7711 10.3447 11.8714 10.3072 11.9651C10.2697 12.0588 10.2135 12.1439 10.142 12.2152C10.0682 12.2884 9.98015 12.3457 9.88331 12.3835C9.78647 12.4214 9.6829 12.439 9.579 12.4352C9.079 12.4352 8.709 12.1962 8.469 11.7192L7.814 12.3692C8.272 13.0642 8.871 13.4122 9.61 13.4122C10.142 13.4122 10.574 13.2462 10.907 12.9152C11.241 12.5852 11.407 12.1532 11.407 11.6212H11.408ZM15.751 13.0862V11.8332C15.366 12.2342 14.959 12.4352 14.532 12.4352C14.022 12.4352 13.602 12.2592 13.274 11.9052C12.946 11.5532 12.782 11.1052 12.782 10.5632C12.782 10.0432 12.946 9.60017 13.274 9.23717C13.4236 9.06307 13.6096 8.92393 13.8188 8.82959C14.0281 8.73524 14.2555 8.68799 14.485 8.69116C14.933 8.69116 15.355 8.89817 15.751 9.31017V8.05717C15.3671 7.84839 14.938 7.73648 14.501 7.73116C14.1352 7.72488 13.772 7.79471 13.4346 7.93621C13.0972 8.07772 12.7929 8.28781 12.541 8.55317C12.004 9.10117 11.735 9.77116 11.735 10.5632C11.735 11.3552 12.001 12.0252 12.532 12.5732C12.7822 12.8389 13.0852 13.0493 13.4215 13.1908C13.7579 13.3324 14.1201 13.402 14.485 13.3952C14.923 13.3952 15.345 13.2922 15.751 13.0852V13.0862ZM35 22.9162V14.3402C34.323 14.7742 33.57 15.2302 32.742 15.7072C31.914 16.1852 30.677 16.8202 29.032 17.6122C27.344 18.4225 25.6261 19.169 23.882 19.8502C22.096 20.5502 19.922 21.2802 17.359 22.0392C14.797 22.7992 12.172 23.4392 9.484 23.9592H34C34.27 23.9592 34.505 23.8562 34.703 23.6502C34.7987 23.554 34.8742 23.4398 34.9252 23.3141C34.9762 23.1884 35.0017 23.0538 35 22.9182V22.9162ZM21.703 10.5962C21.703 9.78216 21.427 9.08716 20.875 8.51217C20.323 7.93717 19.656 7.65016 18.875 7.65016C18.094 7.65016 17.427 7.93717 16.875 8.51217C16.323 9.08716 16.047 9.78216 16.047 10.5962C16.047 11.4092 16.323 12.1042 16.875 12.6792C17.427 13.2542 18.094 13.5422 18.875 13.5422C19.656 13.5422 20.323 13.2542 20.875 12.6792C21.427 12.1042 21.703 11.4092 21.703 10.5962ZM24.078 13.4122L26.328 7.84516H25.218L23.813 11.4912L22.422 7.84516H21.312L23.532 13.4122H24.078ZM26.781 13.2652H29.656V12.3532H27.796V10.8902H29.594V9.97816H27.797V8.77316H29.657V7.84516H26.78V13.2652H26.781ZM32.891 13.2652H34.141L32.5 10.9862C33.292 10.8132 33.688 10.3032 33.688 9.45617C33.688 8.94617 33.526 8.55016 33.203 8.26816C32.88 7.98616 32.427 7.84516 31.843 7.84516H30.328V13.2652H31.344V11.1002H31.484L32.891 13.2652ZM36 2.18116V22.8192C36 23.4272 35.8 23.9422 35.398 24.3652C35.2135 24.5684 34.9879 24.73 34.7362 24.8395C34.4845 24.949 34.2124 25.0037 33.938 25.0002H2.061C1.489 25.0002 1.001 24.7882 0.601 24.3652C0.2 23.9422 0 23.4272 0 22.8202V2.18116C0 1.57316 0.2 1.05816 0.602 0.635165C0.786515 0.431969 1.01209 0.270285 1.26378 0.160815C1.51548 0.051345 1.78755 -0.00341348 2.062 0.000164711H33.937C34.51 0.000164711 34.997 0.212165 35.398 0.635165C35.799 1.05816 36 1.57316 36 2.18116Z" fill="black"/>
</g>
<defs>
<clipPath id="clip0_0_30">
<rect width="36" height="25" fill="white"/>
</clipPath>
</defs>
</svg>

<svg xmlns="http://www.w3.org/2000/svg" width="36" height="25" fill="none"><g clip-path="url(#a)"><path fill="#000" d="M4.89 10.563q0 .83-.562 1.367-.453.424-1.39.424h-.266v-3.58h.265q.954-.001 1.391.44.563.503.563 1.35zm27.75-1.058q0 .846-1 .847h-.296V8.708h.312q.985 0 .985.797zM5.938 10.563q0-1.205-.78-1.96-.782-.758-2.016-.758H1.656v5.42h1.485q1.155 0 1.859-.619a2.67 2.67 0 0 0 .938-2.083m.47 2.702h1.015v-5.42H6.406v5.42zm5-1.644q0-.65-.321-1.009-.32-.359-1.18-.684-.453-.161-.617-.309a.48.48 0 0 1-.164-.374q0-.261.21-.432a.84.84 0 0 1 .54-.17q.453 0 .828.44l.531-.717a2.16 2.16 0 0 0-1.53-.602q-.69 0-1.157.447a1.46 1.46 0 0 0-.469 1.1q0 .57.281.902.282.334 1 .594.578.211.704.31.296.195.296.553a.74.74 0 0 1-.477.713.8.8 0 0 1-.304.052q-.75 0-1.11-.716l-.655.65q.687 1.043 1.796 1.043.798 0 1.297-.497.5-.495.5-1.294zm4.343 1.465v-1.253q-.578.602-1.219.602-.765 0-1.258-.53-.492-.529-.492-1.342 0-.78.492-1.326a1.57 1.57 0 0 1 1.211-.546q.672 0 1.266.62V8.056a2.69 2.69 0 0 0-2.316-.12 2.6 2.6 0 0 0-.894.616q-.806.822-.806 2.01t.797 2.01a2.62 2.62 0 0 0 1.953.822q.657 0 1.266-.31zM35 22.916V14.34q-1.016.651-2.258 1.367-1.242.717-3.71 1.905a75 75 0 0 1-5.15 2.238q-2.679 1.05-6.523 2.19t-7.875 1.92H34q.406 0 .703-.31a1.02 1.02 0 0 0 .297-.732zm-13.297-12.32q0-1.221-.828-2.084-.828-.862-2-.862t-2 .862-.828 2.084q0 1.22.828 2.083t2 .863 2-.863.828-2.083m2.375 2.816 2.25-5.567h-1.11l-1.405 3.646-1.391-3.646h-1.11l2.22 5.567zm2.703-.147h2.875v-.912h-1.86V10.89h1.798v-.912h-1.797V8.773h1.86v-.928H26.78zm6.11 0h1.25L32.5 10.986q1.188-.26 1.188-1.53 0-.765-.485-1.188-.484-.423-1.36-.423h-1.515v5.42h1.016V11.1h.14zM36 2.181V22.82q0 .912-.602 1.546a1.94 1.94 0 0 1-1.46.635H2.061q-.859 0-1.46-.635Q0 23.731 0 22.82V2.181Q0 1.27.602.635A1.94 1.94 0 0 1 2.062 0h31.875q.86 0 1.461.635Q36 1.27 36 2.181"/></g><defs><clipPath id="a"><path fill="#fff" d="M0 0h36v25H0z"/></clipPath></defs></svg>
